X: 142
T:Missa Ad fugam / Gloria
N: Derived from Jos1201b-Missa_Ad_fugam-Gloria.krn
C: Josquin des Prez
%%abc-version 2.0
%%abcx-abcm2ps-target-version 5.9.1 (29 Sep 2008)
%%abc-creator hum2abc beta
%%abcx-conversion-date 2019/02/12 16:15:45
%%abc-edited-by Jesse Rodin
%%abc-edited-by XXX_ADD_ENCODER_XXX
%%abcx-initial-encoding-date 2012/XX/XX/
%%humdrum-veritas 1521523419
%%humdrum-veritas-data 137499574
%%linebreak <none>
%%barnumbers 0
L: 1/4
M: 3/1
Q: 1/2=120
%%staves [1 2 3 4]
V: 1 clef=treble
V: 2 clef=treble-8
V: 3 clef=treble-8
V: 4 clef=bass
K: F
[V:1] G8G4 | 
[V:2] G6A2B3c | 
[V:3] z12 | 
[V:4] G,8_E,4 | 
[V:1] A2A4GFE4 | 
[V:2] A8z2A2 | 
[V:3] c8c4 | 
[V:4] F,6G,2A,4 | 
[V:1] D4z4A4 | 
[V:2] B3AF2G2D4 | 
[V:3] d2d4cBA4 | 
[V:4] z2D,4G,4^F,2 | 
[V:1] B4A2A4G2 | 
[V:2] z2d4c2A2B2 | 
[V:3] G4z4d4 | 
[V:4] G,4D,2F,4_E,2 | 
[V:1] G4z4F2G2 | 
[V:2] (3c2G2A2B8 | 
[V:3] _e4d2d4c2 | 
[V:4] C,4B,,8 | 
[V:1] A8G4 | 
[V:2] A3Bc2F2G4 | 
[V:3] c4z4B2c2 | 
[V:4] F,8_E,4 | 
[V:1] F2A3GF2E4 | 
[V:2] A8z2c2 | 
[V:3] d8c4 | 
[V:4] D,8A,4 | 
[V:1] D2B3AG4^F2 | 
[V:2] d2G2B3cd4 | 
[V:3] B2d3cB2A4 | 
[V:4] B,4G,4D,4 | 
[V:1] G8z4 | 
[V:2] B2c2G2c2d2f2 | 
[V:3] G2_e3dc4=B2 | 
[V:4] _E,2C,2E,3F,D,4 | 
[V:1] z12 | 
[V:2] e2g3f_e4dc | 
[V:3] c8z4 | 
[V:4] C,4z4C4 | 
[V:1] z12 | 
[V:2] B4z4c4 | 
[V:3] z12 | 
[V:4] D4B,2G,2A,4 | 
[V:1] z12 | 
[V:2] d4B2G2A4 | 
[V:3] z12 | 
[V:4] D,4z4C4 | 
[V:1] z12 | 
[V:2] z2D4d4c2 | 
[V:3] z12 | 
[V:4] D4B,2G,2A,4 | 
[V:1] z12 | 
[V:2] _e2d4cBA4 | 
[V:3] z12 | 
[V:4] G,8F,4 | 
[V:1] z12 | 
[V:2] G2d4f2e4 | 
[V:3] z12 | 
[V:4] B,3CD2D4C2 | 
[V:1] z12 | 
[V:2] d12- | 
[V:3] z12 | 
[V:4] B,2A,G,F,2G,3F,B,2- | 
[V:1] z12 | 
[V:2] d8c4 | 
[V:3] z12 | 
[V:4] B,A,G,3F,D,2E,2F,2 | 
[V:1] z12 | 
[V:2] d3cA2d2c2d2 | 
[V:3] z12 | 
[V:4] B,,2F,4G,2A,2D,2 | 
[V:1] z12 | 
[V:2] G2d4c2d2B2 | 
[V:3] z12 | 
[V:4] E,2F,2G,2A,2B,2G,2- | 
[V:1] z12 | 
[V:2] A4G4G4 | 
[V:3] z12 | 
[V:4] G,2^F,2G,4G,4 | 
[V:1] G8A3=B | 
[V:2] c8z4 | 
[V:3] z12 | 
[V:4] z12 | 
[V:1] c6A2=B3c | 
[V:2] z12 | 
[V:3] c8d3e | 
[V:4] z12 | 
[V:1] A3=Bc2d4^c2 | 
[V:2] z12 | 
[V:3] f6d2e3f | 
[V:4] z4z4A,4 | 
[V:1] d4z4z4 | 
[V:2] z4z4c4 | 
[V:3] d3ef2g4^f2 | 
[V:4] B,2B,4G,2A,4 | 
[V:1] z12 | 
[V:2] d2e4d2g3f | 
[V:3] g4z4z4 | 
[V:4] G,2C4B,2G,2B,2- | 
[V:1] z12 | 
[V:2] f4e2d3cc2 | 
[V:3] z12 | 
[V:4] B,A,A,4F,2E,4 | 
[V:1] F8F4 | 
[V:2] B2A3GB2A4 | 
[V:3] z12 | 
[V:4] D,12 | 
[V:1] G8G4 | 
[V:2] G8d2e2 | 
[V:3] B8B4 | 
[V:4] z4G,8 | 
[V:1] A8c4 | 
[V:2] f8F4 | 
[V:3] c8c4 | 
[V:4] F,6G,2A,4 | 
[V:1] B2d4cBA4 | 
[V:2] B2G2B3cd4 | 
[V:3] d8f4 | 
[V:4] G,8D,4 | 
[V:1] G4z2G2A2=B2 | 
[V:2] G4c4z4 | 
[V:3] e2g4fed4 | 
[V:4] E,4C,4F,2G,2 | 
[V:1] c4=B2A3FG2 | 
[V:2] z12 | 
[V:3] c4z2c2d2e2 | 
[V:4] A,4G,2F,2D,2C,2 | 
[V:1] A4G2F2E4 | 
[V:2] z4z4z2e2 | 
[V:3] f4e2d3Bc2 | 
[V:4] F,4C,2D,2A,4 | 
[V:1] D4z4z4 | 
[V:2] f2a4g4^f2 | 
[V:3] d4c2B2A4 | 
[V:4] D,3E,F,2G,2D,4 | 
[V:1] G8G4 | 
[V:2] g8z4 | 
[V:3] G4z4z4 | 
[V:4] E,12 | 
[V:1] G4c6A2 | 
[V:2] e8A4 | 
[V:3] c8c4 | 
[V:4] C,8z4 | 
[V:1] A4z4z4 | 
[V:2] A8d4- | 
[V:3] c4f6d2 | 
[V:4] F,8D,4 | 
[V:1] d4d2d2=B3G | 
[V:2] d2c2B3GG4 | 
[V:3] d4z4z4 | 
[V:4] D,4G,6E,2 | 
[V:1] G4z4G4 | 
[V:2] z4c4c2c2- | 
[V:3] g4g2g2e3c | 
[V:4] E,3C,C,4z4 | 
[V:1] A4G2F2E4 | 
[V:2] c2A2B2d2c2A2- | 
[V:3] c4z4c4 | 
[V:4] F,4G,4A,4 | 
[V:1] D4z2D2E2F2 | 
[V:2] A2B2AGG4F2 | 
[V:3] d4c2B2A4 | 
[V:4] D,4z4C4 | 
[V:1] G4D4z2D2 | 
[V:2] B2G2B3cd4 | 
[V:3] G4z2G2A2B2 | 
[V:4] B,6A,G,F,2G,2 | 
[V:1] E3FG2D2G2=B2 | 
[V:2] z2c2d2B2d3e | 
[V:3] c4G4z2G2 | 
[V:4] C,4z2G,6 | 
[V:1] A4G4z2G2 | 
[V:2] f4e3fg4 | 
[V:3] A3Bc2G2c2e2 | 
[V:4] F,3E,C,8 | 
[V:1] A3=Bc6A2 | 
[V:2] z2g2e2c2e3f | 
[V:3] d4c4z2c2 | 
[V:4] F,3G,A,8 | 
[V:1] =B4z2A4d2- | 
[V:2] g4a8- | 
[V:3] d3ef6d2 | 
[V:4] G,3F,D,8 | 
[V:1] d2c2d4=B2G2 | 
[V:2] a4z4z4 | 
[V:3] e4z2d4g2- | 
[V:4] A,4B,4G,4 | 
[V:1] A4G8- | 
[V:2] z2d4_e3cd2 | 
[V:3] g2^f2g8- | 
[V:4] D,4G,2C4B,2 | 
[V:1] G12 ||  
[V:2] _e3dd8 ||  
[V:3] g12 ||  
[V:4] C4G,8 ||  
[V:1]  [K:F] [K:clef=treble][M:2/1]D8 | 
[V:2]  [K:F] [K:clef=treble-8][M:2/1]z8 | 
[V:3]  [K:F] [K:clef=treble-8][M:2/1]z8 | 
[V:4]  [K:F] [K:clef=bass][M:2/1]G,8- | 
[V:1] D4G4- | 
[V:2] G8 | 
[V:3] z8 | 
[V:4] G,8 | 
[V:1] G4G4 | 
[V:2] G4c4- | 
[V:3] z8 | 
[V:4] E,8 | 
[V:1] G4G4 | 
[V:2] c4c4 | 
[V:3] G8 | 
[V:4] C,8- | 
[V:1] G6E2 | 
[V:2] c4c4 | 
[V:3] G4c4- | 
[V:4] C,8- | 
[V:1] E8 | 
[V:2] c6A2 | 
[V:3] c4c4 | 
[V:4] C,8 | 
[V:1] z4A4- | 
[V:2] A8 | 
[V:3] c4c4 | 
[V:4] F,8 | 
[V:1] A4A4 | 
[V:2] z4c4- | 
[V:3] c6A2 | 
[V:4] F,4F,4 | 
[V:1] A4A4 | 
[V:2] c4c4 | 
[V:3] A8 | 
[V:4] F,6D,2 | 
[V:1] F6D2 | 
[V:2] d4d4 | 
[V:3] z4d4- | 
[V:4] D,8 | 
[V:1] D8 | 
[V:2] B6G2 | 
[V:3] d4d4 | 
[V:4] z8 | 
[V:1] z8 | 
[V:2] G8 | 
[V:3] d4d4 | 
[V:4] z4G,4- | 
[V:1] d8 | 
[V:2] z8 | 
[V:3] B6G2 | 
[V:4] G,8 | 
[V:1] d4d4- | 
[V:2] z8 | 
[V:3] G8 | 
[V:4] B,4B,4 | 
[V:1] d4d4 | 
[V:2] G8 | 
[V:3] z8 | 
[V:4] B,6G,2 | 
[V:1] d4d4 | 
[V:2] B4B4 | 
[V:3] g8 | 
[V:4] G,8 | 
[V:1] =B6G2 | 
[V:2] G4G4 | 
[V:3] g4g4- | 
[V:4] z8 | 
[V:1] G8 | 
[V:2] c6d2 | 
[V:3] g4g4 | 
[V:4] C,8 | 
[V:1] z4G4 | 
[V:2] e4e4 | 
[V:3] g4g4 | 
[V:4] C,4C,4- | 
[V:1] G2G2G4 | 
[V:2] c8 | 
[V:3] e6c2 | 
[V:4] C,4C,4 | 
[V:1] G4G4 | 
[V:2] z4c4- | 
[V:3] c8 | 
[V:4] C,4C,4 | 
[V:1] G4G4 | 
[V:2] c8 | 
[V:3] z4c4 | 
[V:4] C,6D,E, | 
[V:1] A8 | 
[V:2] A4F4 | 
[V:3] c2c2c4 | 
[V:4] F,8 | 
[V:1] G4F4 | 
[V:2] G4A2c2- | 
[V:3] c4c4 | 
[V:4] E,4F,4 | 
[V:1] E8 | 
[V:2] c2d2e4 | 
[V:3] c4c4 | 
[V:4] C,8 | 
[V:1] D8 | 
[V:2] f6g2 | 
[V:3] d8 | 
[V:4] B,,8 | 
[V:1] z8 | 
[V:2] a4d2g2- | 
[V:3] c4B4 | 
[V:4] F,4G,4 | 
[V:1] z8 | 
[V:2] g2^f2^f2e2 | 
[V:3] A8 | 
[V:4] D,8 | 
[V:1] z4d4- | 
[V:2] g8- | 
[V:3] G8 | 
[V:4] G,8 | 
[V:1] d4=B4 | 
[V:2] g8 | 
[V:3] z8 | 
[V:4] z4G,4 | 
[V:1] c4d4 | 
[V:2] z4d4 | 
[V:3] z8 | 
[V:4] A,4B,4 | 
[V:1] G8 | 
[V:2] e4c4 | 
[V:3] z4g4- | 
[V:4] C8- | 
[V:1] z4G4 | 
[V:2] e8 | 
[V:3] g4e4 | 
[V:4] C8 | 
[V:1] A4=B4 | 
[V:2] d8 | 
[V:3] f4g4 | 
[V:4] z4G,4 | 
[V:1] c6=B2 | 
[V:2] z8 | 
[V:3] c8 | 
[V:4] A,4C4- | 
[V:1] A2G2c4 | 
[V:2] z8 | 
[V:3] z4c4 | 
[V:4] C2B,2A,4 | 
[V:1] =B2A2G4 | 
[V:2] z8 | 
[V:3] d4e4 | 
[V:4] G,2F,2C4 | 
[V:1] F8 | 
[V:2] z8 | 
[V:3] f6e2 | 
[V:4] D6C2 | 
[V:1] z8 | 
[V:2] z8 | 
[V:3] d2c2f4 | 
[V:4] B,3A,/G,/F,4 | 
[V:1] z8 | 
[V:2] z8 | 
[V:3] e2d2c4 | 
[V:4] G,2B,4A,2 | 
[V:1] F4F4 | 
[V:2] d4d4 | 
[V:3] B8 | 
[V:4] B,8 | 
[V:1] G4A4 | 
[V:2] e4f4 | 
[V:3] z8 | 
[V:4] z8 | 
[V:1] G2F2E4 | 
[V:2] e2d4^c2 | 
[V:3] z8 | 
[V:4] z8 | 
[V:1] D8 | 
[V:2] d8 | 
[V:3] B4B4 | 
[V:4] G,4G,4 | 
[V:1] z8 | 
[V:2] z8 | 
[V:3] c4d4 | 
[V:4] E,4D,2B,2 | 
[V:1] z8 | 
[V:2] z8 | 
[V:3] c2B2A4 | 
[V:4] A,2G,4^F,2 | 
[V:1] G8 | 
[V:2] z4G4- | 
[V:3] G8 | 
[V:4] G,8 | 
[V:1] G4G4 | 
[V:2] G2A2B4 | 
[V:3] z8 | 
[V:4] z8 | 
[V:1] E4F4 | 
[V:2] c4d4 | 
[V:3] z8 | 
[V:4] z8 | 
[V:1] E6F2 | 
[V:2] A8 | 
[V:3] c8 | 
[V:4] z8 | 
[V:1] G4A2c2- | 
[V:2] z8 | 
[V:3] c4c4 | 
[V:4] z8 | 
[V:1] c=BA4G2 | 
[V:2] z8 | 
[V:3] A4B4 | 
[V:4] z8 | 
[V:1] A8 | 
[V:2] c4f4 | 
[V:3] A6B2 | 
[V:4] F,6G,2 | 
[V:1] z8 | 
[V:2] e4d2c2- | 
[V:3] c4d2f2- | 
[V:4] A,4B,2A,2- | 
[V:1] z8 | 
[V:2] c2BAG4 | 
[V:3] fed4^c2 | 
[V:4] A,2G,F,E,4 | 
[V:1] A8 | 
[V:2] A8 | 
[V:3] d8 | 
[V:4] D,6E,2 | 
[V:1] A4B4 | 
[V:2] z4d4 | 
[V:3] z8 | 
[V:4] F,4G,4 | 
[V:1] A2F2G4 | 
[V:2] d4e4 | 
[V:3] z8 | 
[V:4] F,2E,D,C,4 | 
[V:1] F8 | 
[V:2] d2f2e2d2- | 
[V:3] d8 | 
[V:4] D,4B,,4 | 
[V:1] z8 | 
[V:2] d2cBcBAG | 
[V:3] d4_e4 | 
[V:4] z8 | 
[V:1] z8 | 
[V:2] F2B4A2 | 
[V:3] d2B2c4 | 
[V:4] z4F,4 | 
[V:1] D6E2 | 
[V:2] B8 | 
[V:3] B8 | 
[V:4] G,4B,4- | 
[V:1] F4G4 | 
[V:2] z8 | 
[V:3] z8 | 
[V:4] B,2A,2B,2C2- | 
[V:1] A4F4 | 
[V:2] z8 | 
[V:3] z8 | 
[V:4] CB,A,G,A,4 | 
[V:1] G6F2 | 
[V:2] z4d4 | 
[V:3] G6A2 | 
[V:4] z8 | 
[V:1] D2F2E4 | 
[V:2] d4c4 | 
[V:3] B4c4 | 
[V:4] z4A,4 | 
[V:1] D8 | 
[V:2] f4g4 | 
[V:3] d4B4 | 
[V:4] B,4G,4 | 
[V:1] z8 | 
[V:2] e2a3gb2- | 
[V:3] c6B2 | 
[V:4] A,4F,2G,2- | 
[V:1] z4A4 | 
[V:2] bag4^f2 | 
[V:3] G2B2A4 | 
[V:4] G,4D,4 | 
[V:1] =B4G2B2- | 
[V:2] g8- | 
[V:3] G8 | 
[V:4] G,8 | 
[V:1] B2c2A2d2- | 
[V:2] g4f4 | 
[V:3] z8 | 
[V:4] z8 | 
[V:1] d2c=BA4 | 
[V:2] d8 | 
[V:3] z4d4 | 
[V:4] z8 | 
[V:1] z4c4- | 
[V:2] c8 | 
[V:3] e4c2e2- | 
[V:4] z4C,4- | 
[V:1] c4=B4 | 
[V:2] z8 | 
[V:3] e2f2d2g2- | 
[V:4] C,4G,4- | 
[V:1] G4B4 | 
[V:2] B8 | 
[V:3] g2fed4 | 
[V:4] G,8 | 
[V:1] A8- | 
[V:2] c8 | 
[V:3] z4f4- | 
[V:4] F,8- | 
[V:1] A4G4- | 
[V:2] F4c4- | 
[V:3] f4e4 | 
[V:4] F,4z4 | 
[V:1] G8 | 
[V:2] c2B2G2c2 | 
[V:3] c4e4 | 
[V:4] C,8 | 
[V:1] F2D2F3G | 
[V:2] A2d4cB | 
[V:3] d8- | 
[V:4] D,6E,2 | 
[V:1] A3=Bc2A2- | 
[V:2] A3GA4 | 
[V:3] d4c4- | 
[V:4] F,3G,A,4 | 
[V:1] A2GFE4 | 
[V:2] z4A4 | 
[V:3] c8 | 
[V:4] F,2G,2A,4 | 
[V:1] D6E2 | 
[V:2] B4A4 | 
[V:3] B2G2B3c | 
[V:4] z2D4C2 | 
[V:1] F3GA2B2- | 
[V:2] z4z2G2 | 
[V:3] d3ef2d2- | 
[V:4] B,3A,/G,/F,2G,2- | 
[V:1] B2AG^F3E | 
[V:2] B3cd4- | 
[V:3] d2cBA4 | 
[V:4] G,4D,4 | 
[V:1] G8- | 
[V:2] d2_e4dc | 
[V:3] G8- | 
[V:4] G,8- | 
[V:1] G8- | 
[V:2] B6c2 | 
[V:3] G8- | 
[V:4] G,8- | 
[V:1] G8 |]  
[V:2] d8 |]  
[V:3] G8 |]  
[V:4] G,8 |]  



